X:1
T:Title
%%score { 1 | 2 }
L:1/8
M:2/2
K:E
V:1 treble nm="Grand Piano"
V:2 bass 
V:1
 z4 z2[Q:1/4=112] EF | G2 G2 G2 E2 | F2 E4 EG | [DB]2 [DB]2 [DB]2 [DF]2 |[M:3/4] [FA]2 G4 | %5
[M:1/4] BB |[M:4/4] c2 c2 e3 c | c2 B2 E2 G2 | [EG]4 [CF]2 [CE]2 |[M:5/4] [DF]6 E2 G2 | %10
[M:4/4] B4 B3 B | B6 B2 | c4 [Ec]3 [Ec] | B6 BB | [Ge]2 [Ge]2 [Ge]3 B |[M:9/8] c2 B- B2 E- E G2 | %16
[M:4/4] [A,CF]4 [G,B,E]2 [A,B,F]2 |[M:3/4][K:bass] [E,G,B,E]6 |] %18
V:2
 z4 z2 [E,G,][E,A,E] | [E,B,E]2 [E,B,E]2 [E,B,E]2 [E,G,B,]2 | [E,A,B,]2 [E,G,B,]4 [E,G,B,][E,G,E] | %3
 [B,,F,]2 [B,,F,]2 [B,,F,]2 [B,,B,]2 |[M:3/4] [E,B,]2 [E,B,E]4 |[M:1/4] [E,G,E][E,G,E] | %6
[M:4/4] [A,E]2 [A,E]2 [A,CE]3 [A,E] | [E,A,E]2 [E,G,E]2 [E,G,B,]2 [E,B,E]2 | %8
 [C,C]4 [F,^A,]2 [F,A,]2 |[M:5/4] [B,,B,]6 [E,G,]2 [E,B,E]2 |[M:4/4] [E,G,E]4 [F,A,D]3 [F,A,D] | %11
 [G,B,E]6 [E,G,E]2 | [A,E]4 [A,,A,]3 [C,A,] | [E,G,E]6 [E,G,E][E,G,E] | %14
 [E,B,]2 [E,B,]2 [E,B,]3 [E,G,E] |[M:9/8] [E,A,E]2 [E,G,E]- [E,G,E]2 [E,G,B,]- [E,G,B,] [E,B,E]2 | %16
[M:4/4] A,,4 B,,2 B,,2 |[M:3/4] E,,6 |] %18

